public/assets/techs/postgresql.svg

<svg width="20" height="20" viewBox="0 0 20 20" fill="none" xmlns="http://www.w3.org/2000/svg">
<path d="M18.186 11.8108C18.0031 11.5989 17.6906 11.6568 17.449 11.7048C16.8683 11.8085 16.2365 11.9289 15.674 11.6873C16.6785 10.1021 17.4688 8.37129 17.9109 6.54447C18.0717 5.85017 18.1959 5.13986 18.1723 4.42499C18.1548 4.02487 18.0991 3.59884 17.8545 3.26731C17.2494 2.46936 16.3721 1.88786 15.405 1.62797C14.197 1.30026 12.9014 1.39781 11.7132 1.76516C11.6149 1.78497 11.5181 1.74077 11.4221 1.72857C10.3437 1.50984 9.15478 1.59596 8.21965 2.22014C7.09703 1.81622 5.89058 1.57233 4.69556 1.69732C3.80692 1.78954 2.91446 2.20262 2.4046 2.95941C1.75984 3.90369 1.67219 5.10938 1.77508 6.21599C1.98238 7.68537 2.34058 9.1319 2.79633 10.5426C3.09661 11.4221 3.42738 12.3085 3.96163 13.0767C4.23295 13.4539 4.59344 13.8342 5.07891 13.8937C5.51028 13.9463 5.90049 13.6788 6.16495 13.3617C6.62222 12.8145 7.09246 12.2772 7.58022 11.7574C7.89879 11.9137 8.2448 12.0036 8.59843 12.0303C8.40713 12.2574 8.24937 12.5539 7.94452 12.643C7.53373 12.8015 7.05283 12.7802 6.69081 13.0538C6.48199 13.2032 6.47208 13.5286 6.65957 13.7001C6.99872 14.0293 7.49867 14.1002 7.94985 14.1383C8.58928 14.1871 9.23557 13.9722 9.72104 13.553C9.71804 14.5697 9.72261 15.5894 9.83688 16.6008C9.89404 17.1929 10.1494 17.7828 10.5998 18.1814C11.0243 18.5518 11.6294 18.6288 12.1682 18.535C12.6972 18.4344 13.2406 18.2759 13.6536 17.9147C14.0926 17.5275 14.2801 16.943 14.367 16.382C14.5247 15.3768 14.6444 14.367 14.7587 13.3571C15.889 13.5477 17.1678 13.3312 18.0122 12.5058C18.1929 12.3359 18.3644 12.0417 18.186 11.8108ZM15.6778 2.25064C16.3561 2.50824 16.959 2.95561 17.4117 3.52187C17.6274 3.79242 17.6548 4.15596 17.6685 4.48825C17.6784 5.28086 17.5184 6.06357 17.3149 6.8257C16.9255 8.2364 16.334 9.58842 15.591 10.8475C15.5178 10.9717 15.4378 11.0913 15.3494 11.2049C15.3425 11.1706 15.3288 11.1005 15.3219 11.0654C15.4141 10.8231 15.549 10.5944 15.6016 10.3368C15.7876 9.61052 15.6306 8.86287 15.5635 8.13199C15.4934 7.44226 15.7289 6.77082 15.7228 6.08262C15.7495 5.74576 15.6161 5.42719 15.4866 5.12463C15.0178 4.0767 14.2725 3.14461 13.316 2.50442C13.0828 2.34438 12.8221 2.23234 12.5897 2.07154C13.6064 1.85357 14.697 1.881 15.6771 2.24987L15.6778 2.25064ZM15.0582 8.13351C15.1177 8.94975 15.3547 9.8262 14.9698 10.6005C14.4539 9.57394 13.787 8.59384 13.5545 7.45065C13.489 7.08711 13.4722 6.62678 13.7954 6.37376C14.2054 6.08262 14.7412 6.14817 15.2152 6.17713C15.1946 6.8318 14.9927 7.47427 15.0582 8.13351ZM5.83418 12.9692C5.64898 13.1872 5.39901 13.4471 5.08348 13.3823C4.71461 13.2756 4.47988 12.9387 4.2741 12.6362C3.71851 11.7475 3.38394 10.7438 3.0768 9.7477C2.73308 8.56869 2.44347 7.37062 2.27656 6.15274C2.19349 5.22599 2.24531 4.23217 2.71936 3.40679C3.07451 2.78184 3.7368 2.38325 4.43263 2.25292C5.54686 2.03877 6.68929 2.26592 7.75856 2.59207C7.2868 3.11032 6.91945 3.72078 6.7053 4.38917C6.4134 5.28163 6.28003 6.23124 6.35014 7.16942C6.39054 7.83019 6.37301 8.494 6.28079 9.14943C6.16494 10.0053 6.50867 10.8856 7.14428 11.4633C6.71139 11.9693 6.25259 12.4517 5.83342 12.97L5.83418 12.9692ZM6.80971 9.90318C6.70072 9.41846 6.84324 8.9307 6.85925 8.44522C6.89659 7.89573 6.85772 7.34547 6.84705 6.79598C7.36072 6.46369 7.96128 6.2038 8.58394 6.23962C8.90632 6.25334 9.20355 6.48122 9.28129 6.79903C9.56404 7.92469 9.65168 9.17763 9.10981 10.2438C8.9208 10.6554 8.76761 11.0814 8.63576 11.5136C7.73493 11.5227 6.96899 10.7606 6.80971 9.90318ZM9.61282 12.9166C9.04732 13.6826 7.91556 13.8289 7.09779 13.412C7.50096 13.2253 7.97272 13.2398 8.36216 13.0096C8.73866 12.8069 8.88803 12.361 9.24014 12.1316C9.62349 12.0775 9.90319 12.6468 9.61358 12.9159L9.61282 12.9166ZM14.463 12.0219C14.2481 12.3679 14.3235 12.7901 14.271 13.1742C14.1475 14.2511 14.0263 15.3295 13.851 16.3996C13.768 16.9125 13.55 17.4574 13.066 17.7127C12.5699 17.965 11.9937 18.1235 11.4358 18.0374C10.9062 17.9444 10.5723 17.4505 10.4222 16.9696C10.3125 16.5665 10.301 16.145 10.2698 15.7297C10.2164 14.7275 10.2157 13.723 10.2416 12.72C10.2637 12.3283 10.0625 11.9205 9.71266 11.73C9.54346 11.6347 9.34531 11.6218 9.1563 11.6065C9.30492 10.8696 9.75381 10.2332 9.90776 9.49696C10.1074 8.58621 9.99693 7.63812 9.79268 6.73881C9.69283 6.28992 9.3514 5.89285 8.89717 5.78386C8.19754 5.60781 7.49181 5.88142 6.8661 6.17407C6.94536 5.15739 7.21744 4.11632 7.8401 3.29094C8.29814 2.67666 9.00845 2.26664 9.76676 2.16832C11.0182 2.00904 12.3321 2.35352 13.3267 3.13623C14.1482 3.78556 14.7976 4.66506 15.1474 5.6543C14.5659 5.63373 13.9067 5.6101 13.4364 6.01403C13.0096 6.37375 12.9548 6.98727 13.0508 7.50246C13.2733 8.72797 13.9966 9.7698 14.5301 10.8718C14.6718 11.1302 14.8624 11.3558 15.0437 11.5875C14.8281 11.6965 14.5872 11.8009 14.4645 12.0227L14.463 12.0219ZM15.9598 12.8884C15.5757 12.9342 15.1764 12.9479 14.806 12.8206C14.8075 12.611 14.7961 12.3626 14.9645 12.2063C15.0979 12.108 15.2876 12.0173 15.4416 12.1248C16.097 12.47 16.8591 12.3016 17.5565 12.217C17.1305 12.6316 16.5406 12.8252 15.9598 12.8884ZM13.9463 6.52694C13.8099 6.63897 13.957 6.80665 14.0743 6.85923C14.3586 7.02614 14.7481 6.79293 14.7572 6.46826C14.5004 6.3486 14.1787 6.3608 13.9463 6.52694ZM8.91471 7.04519C9.03589 6.97661 9.16393 6.78836 9.02369 6.6748C8.82402 6.51246 8.53365 6.48122 8.29053 6.54676C8.21203 6.5742 8.12972 6.62754 8.14572 6.72357C8.20212 7.04976 8.63958 7.24792 8.91471 7.04519Z" fill="#EEEEEE"/>
</svg>

<svg xmlns="http://www.w3.org/2000/svg" width="20" height="20" fill="none" xmlns:v="https://vecta.io/nano"><path d="M18.186 11.811c-.183-.212-.495-.154-.737-.106-.581.104-1.213.224-1.775-.018 1.005-1.585 1.795-3.316 2.237-5.143.161-.694.285-1.405.261-2.119-.017-.4-.073-.826-.318-1.158-.605-.798-1.482-1.379-2.45-1.639-1.208-.328-2.504-.23-3.692.137-.098.02-.195-.024-.291-.037-1.078-.219-2.267-.133-3.202.492-1.123-.404-2.329-.648-3.524-.523-.889.092-1.781.505-2.291 1.262-.645.944-.732 2.15-.63 3.257.207 1.469.566 2.916 1.021 4.327.3.88.631 1.766 1.165 2.534.271.377.632.757 1.117.817.431.053.822-.215 1.086-.532l1.415-1.604c.319.156.665.246 1.018.273-.191.227-.349.524-.654.613-.411.159-.892.137-1.254.411-.209.149-.219.475-.031.646.339.329.839.4 1.29.438.639.049 1.286-.166 1.771-.585l.116 3.048c.057.592.313 1.182.763 1.581.425.37 1.03.447 1.568.354.529-.101 1.072-.259 1.485-.62.439-.387.626-.972.713-1.533l.392-3.025c1.13.191 2.409-.026 3.254-.851.181-.17.352-.464.174-.695zm-2.508-9.56c.678.258 1.281.705 1.734 1.271.216.271.243.634.257.966.01.793-.15 1.575-.354 2.337a16.66 16.66 0 0 1-1.724 4.022 3.35 3.35 0 0 1-.242.357l-.027-.139c.092-.242.227-.471.28-.729.186-.726.029-1.474-.038-2.205-.07-.69.165-1.361.159-2.049.027-.337-.107-.655-.236-.958-.469-1.048-1.214-1.98-2.171-2.62-.233-.16-.494-.272-.726-.433 1.017-.218 2.107-.191 3.087.178l.001.001zm-.62 5.883c.059.816.297 1.693-.088 2.467-.516-1.027-1.183-2.007-1.415-3.15-.066-.364-.082-.824.241-1.077.41-.291.946-.226 1.42-.197-.021.655-.223 1.297-.157 1.956zm-9.224 4.836c-.185.218-.435.478-.751.413-.369-.107-.604-.444-.809-.746-.556-.889-.89-1.892-1.197-2.889-.344-1.179-.633-2.377-.8-3.595-.083-.927-.031-1.921.443-2.746.355-.625 1.017-1.024 1.713-1.154 1.114-.214 2.257.013 3.326.339-.472.518-.839 1.129-1.053 1.797-.292.892-.425 1.842-.355 2.78.04.661.023 1.325-.069 1.98-.116.856.228 1.736.863 2.314L5.833 12.97l.001-.001zm.976-3.066c-.109-.485.034-.972.05-1.458.037-.549-.002-1.1-.012-1.649.514-.332 1.114-.592 1.737-.556.322.014.62.242.697.559.283 1.126.37 2.379-.171 3.445a10.09 10.09 0 0 0-.474 1.27c-.901.009-1.667-.753-1.826-1.61zm2.803 3.013c-.566.766-1.697.912-2.515.495.403-.187.875-.172 1.264-.402.377-.203.526-.649.878-.878.383-.054.663.515.373.784l-.001.001zm4.85-.895c-.215.346-.139.768-.192 1.152l-.42 3.225c-.083.513-.301 1.058-.785 1.313-.496.252-1.072.411-1.63.325-.53-.093-.864-.587-1.014-1.068-.11-.403-.121-.825-.152-1.24l-.028-3.01c.022-.392-.179-.8-.529-.99-.169-.095-.367-.108-.556-.123.149-.737.598-1.373.751-2.11.2-.911.089-1.859-.115-2.758-.1-.449-.441-.846-.896-.955-.7-.176-1.405.098-2.031.39.079-1.017.351-2.058.974-2.883a2.89 2.89 0 0 1 1.927-1.123 4.83 4.83 0 0 1 3.56.968c.821.649 1.471 1.529 1.821 2.518-.582-.021-1.241-.044-1.711.36-.427.36-.482.973-.386 1.488.223 1.226.946 2.267 1.479 3.369.142.258.332.484.514.716-.216.109-.457.213-.579.435l-.002-.001zm1.497.867c-.384.046-.783.059-1.154-.068.002-.21-.01-.458.159-.614.133-.098.323-.189.477-.082.655.345 1.418.177 2.115.092-.426.415-1.016.608-1.597.671zm-2.013-6.361c-.136.112.011.28.128.332.284.167.674-.066.683-.391-.257-.12-.578-.107-.811.059zm-5.032.518c.121-.069.249-.257.109-.37-.2-.162-.49-.194-.733-.128-.079.027-.161.081-.145.177.056.326.494.524.769.322z" fill="#336791"/></svg>
